!!!CDT:
!!!PTL: Il secondo libro de madrigali a cinque voci
!!!PPP: Venice
!!!PPR: Vincenzi & Amadino
!!!PDT: 1584
!!!RISM: M 1502
!!!rime: 155
!!!AGN: Madrigal
!!!SCT: Trm0155a
!!!SCA: Trm0155a
!!!voices: 5
!!!COM: Mazza, Francesco
!!!OTL: Se l'imagine vostra 
**kern	**text	**kern	**text	**kern	**text	**kern	**text
*part4	*part4	*part3	*part3	*part2	*part2	*part1	*part1
*staff4	*staff4	*staff3	*staff3	*staff2	*staff2	*staff1	*staff1
*I"Basso	*	*I"Quinto	*	*I"Tenore	*	*I"Canto	*
*clefF4	*	*clefGv2	*	*clefGv2	*	*clefG2	*
*	*	*Trd-4c-7	*	*	*	*	*
*k[]	*	*k[b-]	*	*k[]	*	*k[]	*
*M4/2	*	*M4/2	*	*M4/2	*	*M4/2	*
=1	=1	=1	=1	=1	=1	=1	=1
0r	.	2r	.	0r	.	1r	.
.	.	4C	Se	.	.	.	.
.	.	4C	l'i-	.	.	.	.
.	.	4F	-ma-	.	.	4g	Se
.	.	8FL	-gi-	.	.	4g	l'i-
.	.	8EJ	-ne	.	.	.	.
.	.	2D	vo-	.	.	4cc	-ma-
.	.	.	.	.	.	8ccL	-gi-
.	.	.	.	.	.	8bJ	-ne
=2	=2	=2	=2	=2	=2	=2	=2
0r	.	4D	-stra	0r	.	4a	vo-
.	.	4D	In	.	.	8aL	-stra
.	.	.	.	.	.	8eJ	In
.	.	4.D	me	.	.	4e	me
.	.	.	.	.	.	4f	di-
.	.	8D	di-	.	.	.	.
.	.	4C	-pin-	.	.	4g	-pin-
.	.	4F	-ge A-	.	.	4g	-ge A-
.	.	2D	-mo-	.	.	2f	-mo-
=3	=3	=3	=3	=3	=3	=3	=3
0r	.	2D	-re,	4r	.	2e	-re,
.	.	.	.	4A	Per-	.	.
.	.	4r	.	2A	-ché,	4r	.
.	.	4D	Per-	.	.	4a	Per-
.	.	2F	-ché,	4r	.	2g	-ché,
.	.	.	.	4c	Per-	.	.
.	.	4r	.	4c	-ché,	4r	.
.	.	4A	Per-	4C	Per-	4cc	Per-
=4	=4	=4	=4	=4	=4	=4	=4
0r	.	4G	-ché	4G	-ché	4b	-ché
.	.	4G	l'o-	4D	l'o-	4a	l'o-
.	.	4E	-pra	4E	-pra	4g	-pra
.	.	4E	chie-	4G	chie-	4g	chie-
.	.	4F	-d'io	4F	-d'io	4a	-d'io
.	.	2F	d'al-	2F	d'al-	2a	d'al-
.	.	4F	-tro	4F	-tro	4a	-tro
=5	=5	=5	=5	=5	=5	=5	=5
1r	.	2E	pit-	2G	pit-	4g	pit-
.	.	.	.	.	.	2g	-to-
.	.	2D	-to-	2D	-to-	.	.
.	.	.	.	.	.	4f#X	.
2r	.	2E	-re?	1G	-re?	1g	-re?
2G	Ben	4r	.	.	.	.	.
.	.	4E	Ben	.	.	.	.
=6	=6	=6	=6	=6	=6	=6	=6
2A	puo-	2F	puo-	2r	.	2r	.
2G	-t'il	2E	-t'il	4r	.	2g	Ben
.	.	.	.	4B	Ben	.	.
2F	mio	2D	mio	2c	puo-	2a	puo-
2G	pen-	2G	pen-	2B	-t'il	2g	-t'il
=7	=7	=7	=7	=7	=7	=7	=7
2D	-sie-	2G	-sie-	2.A	mio	2.f#X	mio
2D	-ro	1GG	-ro	.	.	.	.
.	.	.	.	4B-X	pen-	4g	pen-
2r	.	.	.	2A	-sie-	2a	-sie-
4r	.	2D	Mi-	2D	-ro	4f#X	-ro
4D	Mi-	.	.	.	.	4f#i	Mi-
=8	=8	=8	=8	=8	=8	=8	=8
4G	-rar	4E	-rar	1r	.	4g	-rar
4E	la	4F	la	.	.	4cc	la
4F	for-	4F	for-	.	.	4a	for-
4G	-ma in-	4E	-ma in-	.	.	4g	-ma in-
4C	-ter-	4F	-ter-	2r	.	4g	-ter-
4C	-na,	4F	-na,	.	.	4g	-na,
4F	Ma	4D	Ma	4c	Ma	4a	Ma
8FL	non	8DL	non	8cL	non	8aL	non
8FJ	fa-	8DJ	fa-	8cJ	fa-	8aJ	fa-
=9	=9	=9	=9	=9	=9	=9	=9
4F	-rà	4D	-rà	4c	-rà	4a	-rà
4C	che	4C	che	4c	che	4cc	che
4G	l'oc-	4C	l'oc-	2.d	l'oc-	4b	l'oc-
4GG	-chio un-	4C	-chio un-	.	.	4b	-chio un-
2D	-qua	8GGL	-qua	.	.	2a	-qua
.	.	8AA	.	.	.	.	.
.	.	8BB-y	.	4A	-chio un-	.	.
.	.	8CJ	.	.	.	.	.
2D	la	8DL	.	4.F	-qua	2a	la
.	.	8C	.	.	.	.	.
.	.	8D	.	.	.	.	.
.	.	8EJ	.	8G	.	.	.
=10	=10	=10	=10	=10	=10	=10	=10
1AA	scer-	4F#X	la	4A	.	1a	scer-
.	.	2G	scer-	4F	la	.	.
.	.	.	.	2E	scer-	.	.
.	.	4F#X	.	.	.	.	.
1D	-na.	1G	-na.	2D	-na.	1f#X	-na.
.	.	.	.	2d	Dun-	.	.
=11	=11	=11	=11	=11	=11	=11	=11
2G	Dun-	0r	.	4B	-que,	2r	.
.	.	.	.	4d	pri-	.	.
4E	-que,	.	.	4c	-vo	2g	Dun-
4G	pri-	.	.	4B	del	.	.
4A	-vo	.	.	4c	ve-	4e	-que,
4G	del	.	.	4B	-ro,	4g	pri-
8FL	ve-	.	.	4r	.	4a	-vo
8GJ	.	.	.	.	.	.	.
4A	.	.	.	4c	<Dun-	4cc	del
=12	=12	=12	=12	=12	=12	=12	=12
2G	-ro,	4r	.	4d	-que,	2b	ve-
.	.	4G	Dun-	4.G	pri-	.	.
2r	.	4E	-que,	.	.	2g	-ro,
.	.	.	.	8G	-vo	.	.
.	.	4G	pri-	4G	del	.	.
1r	.	4F	-vo	4A	ve-	2r	.
.	.	4E	del	4G	-ro,>	.	.
.	.	2F	ve-	2r	.	4.g	L'hab-
.	.	.	.	.	.	8a	.
=13	=13	=13	=13	=13	=13	=13	=13
4r	.	2C	-ro,	2r	.	8bL	.
.	.	.	.	.	.	8ccJ	.
2G	L'hab-	.	.	.	.	4dd	.
.	.	4G	L'hab-	4G	L'hab-	4b	-bi al-
4C	-bi al-	4F	-bi al-	4G	-bi al-	2cc	-men-
4F	-men	4F	-men	2A	-men	.	.
2A	fin-	2F	fin-	.	.	2a	-fin-
.	.	.	.	4A	fin-	.	.
4AA	-ta il	4A	-ta il	4A	-ta il	4a	-ta il
=14	=14	=14	=14	=14	=14	=14	=14
2E	sen-	2A	sen-	2B	sen-	2g#X	sen-
2AA	-so,	2A	-so	4c	-so	4a	-so
.	.	.	.	4A	Per-	4a	Per-
1r	.	4r	.	4A	-ch'io	4e	-ch'io
.	.	4F	Per-	4A	ri-	4f	ri-
.	.	4F	-ch'io	4G	-mi-	4gnXi	-mi-
.	.	4E	ri-	4G	-r'in	4g	-r'in
=15	=15	=15	=15	=15	=15	=15	=15
0r	.	4F	-mi-	8CL	voi	4g	voi
.	.	.	.	8D	.	.	.
.	.	4F	-r'in	8E	.	4.g	men-
.	.	.	.	8FJ	.	.	.
.	.	4E	voi	4G	.	.	.
.	.	.	.	.	.	8g	-tre
.	.	4F	men-	4C	men-	4g	vi
.	.	4D	-tre	4D	-tre	8fL	pen-
.	.	.	.	.	.	8gJ	.
.	.	4G	vi	4D	vi	4.a	.
.	.	2F#X	pen-	2A	pen-	.	.
.	.	.	.	.	.	8g	.
.	.	.	.	.	.	4e	.
=16	=16	=16	=16	=16	=16	=16	=16
4r	.	4G	-so,	1D	-so,	4f#X	-so,
2D	Dun-	2D	Dun-	.	.	2f#i	Dun-
4D	-que,	4D	-que,	.	.	4f#i	-que,
2G	pri-	2E	pri-	1r	.	2g	pri-
4F#X	-vo	4D	-vo	.	.	4a	-vo
4G	del	4C	del	.	.	4b	del
=17	=17	=17	=17	=17	=17	=17	=17
2C	ve-	2F	ve-	0r	.	4cc	ve-
.	.	.	.	.	.	4g	-ro,
4C	-ro,	4F	-ro,	.	.	4r	.
2c	L'hab-	2A	L'hab-	.	.	2cc	L'hab-
4G	-bi al-	4G	-bi al-	.	.	4b	-bi al-
2A	-men	4F	-men	.	.	4a	-men
.	.	[4D	fin-	.	.	[4cc	fin-
=18	=18	=18	=18	=18	=18	=18	=18
2E	fin-	4D]	.	1r	.	4cc]	.
.	.	4C#X	-ta il	.	.	4b	-ta il
2F	-ta il	2D	sen-	.	.	4.a	sen-
.	.	.	.	.	.	8g	.
2D	sen-	2D	-so	4r	.	2f	.
.	.	.	.	4A	Per-	.	.
2E	-so	2r	.	4A	-ch'io	2e	.
.	.	.	.	4G#X	ri-	.	.
=19	=19	=19	=19	=19	=19	=19	=19
4r	.	4r	.	8AL	-mi-	1e	-so
.	.	.	.	8B	.	.	.
4A	Per-	4D	Per-	8c	.	.	.
.	.	.	.	8dJ	.	.	.
4A	-ch'io	4F	-ch'io	4e	.	.	.
4A	ri-	4F	ri-	4c	-r'in	.	.
4.G	-mi-	4.E	-mi-	2d	voi	1r	.
8F	-r'in	8D	-r'in	.	.	.	.
2E	voi	2CnX	voi,	2e	men-	.	.
=20	=20	=20	=20	=20	=20	=20	=20
2A	men-	1r	.	2c#X	-tre	4r	.
.	.	.	.	.	.	4a	Per-
2F#X	-tre	.	.	2.d	vi	4a	-ch'io
.	.	.	.	.	.	4a	ri-
2G	vi	2r	.	.	.	4.g	-mi-
.	.	.	.	2e	pen-	.	.
.	.	.	.	.	.	8f	-r'in
2A	pen-	4r	.	.	.	4e	voi
.	.	4D	Per-	4A	-so,	4a	men-
=21	=21	=21	=21	=21	=21	=21	=21
2D	-so,	4D	-ch'io	4r	.	2f#X	-tre
.	.	4D	ri-	4d	Per-	.	.
2r	.	2C	-mi-	4B	-ch'io	2g	vi
.	.	.	.	4B	ri-	.	.
2r	.	2BBnX	-r'in	4A	-mi-	2a	pen-
.	.	.	.	4A	-r'in	.	.
4r	.	8CL	voi,	2G	voi,	2d	-so,
.	.	8D	.	.	.	.	.
4G	Per-	8E	.	.	.	.	.
.	.	8FJ	.	.	.	.	.
=22	=22	=22	=22	=22	=22	=22	=22
4G	-ch'io	4G	.	4r	.	1r	.
4G	ri-	4E	<Per-	4G	<Per-	.	.
4.E	-mi-	4E	-ch'io	4G	-ch'io	.	.
.	.	4E	ri-	4G	ri-	.	.
8D	-r'in	.	.	.	.	.	.
1C	voi	4.F	-mi-	2.G	-mi-	4r	.
.	.	.	.	.	.	4cc	Per-
.	.	8G	-r'in	.	.	.	.
.	.	4A	voi>	.	.	4cc	-ch'io
.	.	4A	men-	4G	-r'in	4cc	ri-
=23	=23	=23	=23	=23	=23	=23	=23
2G	men-	4G	-tre	8GL	voi>	4.b	-mi-
.	.	.	.	8A	.	.	.
.	.	4.G	vi	8B	.	.	.
.	.	.	.	8cJ	.	8a	-r'in
4G	-tre	.	.	4d	.	4g	voi
.	.	8F	.	.	.	.	.
4GG	vi	4E	.	4d	men-	4dd	men-
4.BB	pen-	8EL	pen-	4d	-tre	4b	-tre
.	.	8FJ	.	.	.	.	.
.	.	4.G	.	4B	vi	4g	vi
8C	.	.	.	.	.	.	.
2D	.	.	.	2A	pen-	2f#X	pen-
.	.	8F	.	.	.	.	.
.	.	4D	.	.	.	.	.
=24	=24	=24	=24	=24	=24	=24	=24
0GGl	-so.	0El	-so.	0Gl	-so.	0gl	-so.
==	==	==	==	==	==	==	==
*-	*-	*-	*-	*-	*-	*-	*-
!!!system-decoration: [(s1,s2,s3,s4)]
!!!RDF**kern: i = editorial accidental
!!!RDF**kern: l = terminal long
!!!ENC: Emiliano Ricciardi
!!!END: 2018
!!!EED: Emiliano Ricciardi
!!!EEV: 2018/09/18
!!!YEC: Copyright 2018 Emiliano Ricciardi, All Rights Reserved
!!!ONB: Translated from MusicXML on 2018/09/18 and edited by Craig Stuart Sapp
